src/assets/svg/smallN.svg

<svg width="214" height="146" viewBox="0 0 214 146" fill="none" xmlns="http://www.w3.org/2000/svg">
<path opacity="0.2" d="M23.1758 1.9612L22.8077 1.8387L22.5976 2.16491C20.9373 4.74299 19.3041 8.97396 18.0854 14.1109C16.8643 19.2573 16.0509 25.3483 16.0509 31.6658C16.0509 35.8168 16.5464 40.6871 18.0851 44.5386C19.6257 48.3948 22.2749 51.3537 26.6108 51.3537C30.3048 51.3537 33.5676 48.7958 36.7562 45.1886C38.8802 42.7858 41.0344 39.8395 43.3039 36.7356C44.4485 35.1702 45.6224 33.5646 46.8366 31.9685C54.1332 22.3763 62.9821 12.9779 76.3713 12.9779C76.9812 12.9779 78.0225 13.0637 79.4012 13.1774C79.7864 13.2091 80.1979 13.2431 80.6338 13.2779C73.1826 28.7268 62.0627 49.8545 49.4264 67.0557C43.0174 75.7799 36.2328 83.4739 29.3548 88.9044C22.4711 94.3393 15.5485 97.4644 8.84916 97.1584L8.39897 97.1378L8.33191 97.5835L1.50557 142.953L1.41914 143.527H2C10.3728 143.527 17.9067 138.943 24.9305 131.272C31.9546 123.6 38.5247 112.781 44.9751 100.172C51.3693 87.6727 57.6626 73.3806 64.1714 58.5989L64.3494 58.1946C70.8774 43.3698 77.6263 28.0614 84.9246 13.552C91.2596 14.2787 99.8864 15.6564 107.163 17.9754C110.869 19.1568 114.198 20.574 116.69 22.2565C119.19 23.9436 120.777 25.8482 121.148 27.9846C121.847 32.1779 121.148 37.8057 118.502 42.9121C115.37 48.902 109.633 54.1134 102.719 59.1036C98.3028 62.2906 93.4466 65.3607 88.5154 68.4782C85.7175 70.247 82.8954 72.0311 80.1158 73.8605C64.8472 83.9099 50.9012 95.2972 50.9012 112.542C50.9012 124.137 57.1751 132.39 64.9047 137.723C72.6195 143.046 81.8346 145.5 87.8683 145.5C107.536 145.5 121.141 129.701 127.254 121.266C131.474 115.558 135.536 106.546 139.66 96.0731C141.903 90.3788 144.177 84.2162 146.51 77.8958C148.465 72.6005 150.46 67.1943 152.512 61.86C157.023 50.13 161.829 38.6874 167.149 29.298C172.476 19.895 178.278 12.6259 184.75 9.1535C193.299 4.64527 200.207 4.6784 208.99 4.72051C209.854 4.72466 210.737 4.72889 211.641 4.72889H212.042L212.129 4.33753L212.488 2.7236L212.624 2.11495H212H185.593C177.828 2.11495 167.257 3.28553 157.689 6.78545C148.128 10.2829 139.485 16.1388 135.727 25.5627C131.219 36.8591 128.124 49.8407 125.476 62.9348C124.487 67.8247 123.561 72.726 122.647 77.563C121.11 85.6988 119.608 93.6528 117.898 101.065C115.171 112.881 111.935 123.228 107.249 130.613C102.577 137.974 96.498 142.348 88.0479 142.348C83.8321 142.348 80.7882 140.34 78.7803 137.452C76.7611 134.548 75.7934 130.752 75.7934 127.247C75.7934 122.073 77.8851 115.791 81.2387 108.917C84.5867 102.054 89.1643 94.6562 94.0781 87.2648C97.2887 82.4352 100.635 77.6198 103.872 72.9618C105.591 70.4881 107.279 68.0589 108.9 65.6955C113.564 58.8936 117.668 52.6375 120.29 47.4942L120.29 47.4934C127.449 33.381 126.399 21.6601 120.843 13.4309C115.301 5.22443 105.343 0.591866 94.8786 0.501031L94.8774 0.501024C80.442 0.410395 70.0979 6.35379 61.1189 12.262C60.0994 12.9328 59.0992 13.6019 58.1136 14.2613C54.7472 16.5136 51.5507 18.6521 48.335 20.3551C44.1894 22.5506 40.0618 23.9928 35.5928 23.9928C31.5503 23.9928 28.1842 21.0468 26.1161 16.852C24.0527 12.6667 23.3567 7.36767 24.5779 2.92685L24.7037 2.46958L24.2537 2.31985L23.1758 1.9612Z" stroke="#002DFF"/>
</svg>

<svg viewBox='0 0 214 146' xmlns='http://www.w3.org/2000/svg'>
	<path opacity='.2'
		  d='m23.176 1.961-.368-.122-.21.326c-1.66 2.578-3.294 6.809-4.513 11.946-1.22 5.146-2.034 11.237-2.034 17.555 0 4.15.495 9.021 2.034 12.873 1.54 3.856 4.19 6.815 8.526 6.815 3.694 0 6.957-2.558 10.145-6.165 2.124-2.403 4.278-5.35 6.548-8.453 1.145-1.566 2.318-3.171 3.533-4.767 7.296-9.593 16.145-18.991 29.534-18.991.61 0 1.651.086 3.03.2l1.233.1c-7.451 15.449-18.571 36.576-31.208 53.778-6.409 8.724-13.193 16.418-20.071 21.848-6.884 5.435-13.806 8.56-20.506 8.254l-.45-.02-.067.445-6.826 45.37-.087.574H2c8.373 0 15.907-4.584 22.93-12.255 7.025-7.672 13.595-18.491 20.045-31.1 6.394-12.5 12.688-26.791 19.196-41.573l.178-.404C70.877 43.37 77.626 28.06 84.925 13.552c6.335.727 14.961 2.104 22.238 4.423 3.706 1.182 7.035 2.599 9.527 4.281 2.5 1.688 4.087 3.592 4.458 5.729.699 4.193 0 9.82-2.646 14.927-3.132 5.99-8.869 11.201-15.783 16.192-4.416 3.187-9.272 6.257-14.204 9.374-2.797 1.769-5.62 3.553-8.4 5.383-15.268 10.049-29.214 21.436-29.214 38.681 0 11.595 6.274 19.848 14.004 25.181 7.715 5.323 16.93 7.777 22.963 7.777 19.668 0 33.273-15.799 39.386-24.234 4.22-5.708 8.282-14.72 12.406-25.193 2.243-5.694 4.517-11.857 6.85-18.177 1.955-5.296 3.95-10.702 6.002-16.036 4.511-11.73 9.317-23.173 14.637-32.562 5.327-9.403 11.129-16.672 17.601-20.144 8.549-4.509 15.457-4.476 24.24-4.433.864.004 1.747.008 2.651.008h.401l.087-.391.359-1.614.136-.61h-27.031c-7.765.001-18.336 1.172-27.904 4.671-9.561 3.498-18.204 9.354-21.962 18.778-4.508 11.296-7.603 24.278-10.251 37.372-.989 4.89-1.915 9.791-2.829 14.628-1.537 8.136-3.039 16.09-4.749 23.502-2.727 11.816-5.963 22.163-10.649 29.548-4.672 7.361-10.751 11.735-19.201 11.735-4.216 0-7.26-2.008-9.268-4.896-2.019-2.904-2.987-6.7-2.987-10.205 0-5.174 2.092-11.456 5.446-18.33 3.348-6.863 7.925-14.26 12.84-21.652 3.21-4.83 6.556-9.645 9.793-14.303 1.719-2.474 3.407-4.903 5.028-7.267 4.664-6.801 8.768-13.057 11.39-18.2v-.002c7.159-14.112 6.109-25.833.553-34.062C115.301 5.224 105.343.59 94.879.5h-.002C80.442.411 70.097 6.354 61.12 12.262c-1.02.67-2.02 1.34-3.005 2-3.367 2.252-6.563 4.39-9.779 6.093-4.146 2.196-8.273 3.638-12.742 3.638-4.043 0-7.409-2.946-9.477-7.141-2.063-4.185-2.76-9.484-1.538-13.925l.126-.457-.45-.15-1.078-.359Z' />
</svg>
